icons/wheelchair.svg

<svg width="24" height="24" viewBox="0 0 24 24" fill="none" xmlns="http://www.w3.org/2000/svg">
<path fill-rule="evenodd" clip-rule="evenodd" d="M11.8272 4.78212L13.4528 5.60181L16.0509 7.10181C17.0075 7.65409 17.3352 8.87727 16.783 9.83386L15.5362 11.9933L18.0004 12C18.5313 12.0054 18.9973 12.1932 19.3985 12.5635C19.7998 12.9338 20.0004 13.4127 20.0004 14V19C20.0004 19.6667 19.6671 20 19.0004 20C18.3337 20 18.0004 19.6667 18.0004 19L18 14H15.6655C15.9014 14.8754 16.0194 15.5434 16.0194 16.0039C16.0194 18.6537 14 22 10.0004 22C6.0008 22 4 18.8474 4 16.0039C4 13.1604 6.2004 10.0063 9.97875 10.0063C10.1724 10.0063 10.4691 10.0301 10.8688 10.0775L12.4192 7.39215L11.1769 6.65477L10.0989 8.48648C9.7096 8.94975 9.262 9.02361 8.75606 8.70807C8.25012 8.39253 8.16037 7.95389 8.48681 7.39215L9.51497 5.60181C9.73148 5.22005 10.0498 4.94682 10.4699 4.78212C10.8901 4.61742 11.3425 4.61742 11.8272 4.78212ZM10.0004 12C7.79126 12 6.0004 13.7909 6.0004 16C6.0004 18.2091 7.79126 20 10.0004 20C12.2095 20 14.0004 18.2091 14.0004 16C14.0004 13.7909 12.2095 12 10.0004 12ZM16.0004 2C17.105 2 18.0004 2.89543 18.0004 4C18.0004 5.10457 17.105 6 16.0004 6C14.8958 6 14.0004 5.10457 14.0004 4C14.0004 2.89543 14.8958 2 16.0004 2Z" fill="#3A3A47"/>
</svg>

<svg xmlns="http://www.w3.org/2000/svg" width="24" height="24" viewBox="0 0 24 24">
    <path fill="#3A3A47" fill-rule="evenodd" d="M11.827 4.782l1.626.82 2.598 1.5a2 2 0 0 1 .732 2.732l-1.247 2.16L18 12c.531.005.997.193 1.399.564.4.37.601.849.601 1.436v5c0 .667-.333 1-1 1-.666 0-1-.333-1-1v-5h-2.335c.236.875.354 1.543.354 2.004C16.02 18.654 14 22 10 22s-6-3.153-6-5.996c0-2.844 2.2-5.998 5.979-5.998.193 0 .49.024.89.071l1.55-2.685-1.242-.737-1.078 1.831c-.39.464-.837.538-1.343.222-.506-.315-.596-.754-.27-1.316l1.029-1.79c.216-.382.535-.655.955-.82.42-.165.872-.165 1.357 0zM10 12a4 4 0 1 0 0 8 4 4 0 0 0 0-8zm6-10a2 2 0 1 1 0 4 2 2 0 0 1 0-4z"/>
</svg>
